packages/icons/src/SVG/flag.svg

<svg width="12" height="12" viewBox="0 0 12 12" fill="none" xmlns="http://www.w3.org/2000/svg">
<path d="M3.75391 0C4.23047 0 4.69531 0.0429688 5.14844 0.128906C5.60156 0.207031 6.04688 0.292969 6.48438 0.386719C6.91406 0.472656 7.34375 0.5625 7.77344 0.65625C8.21094 0.75 8.66406 0.796875 9.13281 0.796875C9.4375 0.796875 9.72656 0.78125 10 0.75C10.2734 0.710938 10.5234 0.679688 10.75 0.65625C10.875 0.640625 11.0898 0.617188 11.3945 0.585938C11.707 0.546875 11.9062 0.515625 12 0.5V7.5C11.9062 7.51562 11.707 7.54688 11.3945 7.59375C11.0898 7.64062 10.875 7.67188 10.75 7.6875C10.5312 7.71094 10.2891 7.73828 10.0234 7.76953C9.75781 7.80078 9.47656 7.81641 9.17969 7.81641C8.67969 7.81641 8.19531 7.77734 7.72656 7.69922C7.25781 7.61328 6.80078 7.52344 6.35547 7.42969C5.91797 7.33594 5.48438 7.22656 5.05469 7.10156C4.63281 6.96875 4.20312 6.90234 3.76562 6.90234C3.14844 6.90234 2.73047 6.9375 2.51172 7.00781C2.29297 7.07031 2.11719 7.12031 2 7.175V12H1V0.550781L1.14062 0.457031C1.17188 0.433594 1.375 0.351562 1.75 0.210938C2.13281 0.0703125 2.80078 0 3.75391 0ZM3.76562 0.949219C3.15625 0.949219 2.73828 0.988281 2.51172 1.06641C2.29297 1.14453 2.125 1.20703 2.00781 1.25391L2 6.25C2.20312 6.1875 2.42188 6.13672 2.64062 6.08203C2.86719 6.02734 3.24219 6 3.76562 6C4.24219 6 4.70312 6.0625 5.14844 6.1875C5.60156 6.30469 6.04688 6.41016 6.48438 6.50391C6.91406 6.59766 7.32422 6.6875 7.71484 6.77344C8.10547 6.85938 8.53516 6.90234 9.00391 6.90234C9.30078 6.90234 9.65234 6.88672 10.0586 6.85547C10.4648 6.81641 10.7734 6.78125 11 6.75V1.60547C10.7734 1.62891 10.4883 1.66016 10.1289 1.69922C9.76953 1.73828 9.44141 1.75781 9.14453 1.75781C8.63672 1.75781 8.15625 1.70703 7.70312 1.60547C7.25 1.49609 6.80078 1.39453 6.35547 1.30078C5.91797 1.20703 5.48438 1.125 5.05469 1.05469C4.63281 0.984375 4.20312 0.949219 3.76562 0.949219Z" fill="#4C505B"/>
</svg>

<!-- Generated by IcoMoon.io -->
<svg version="1.1" xmlns="http://www.w3.org/2000/svg" width="12" height="12" viewBox="0 0 12 12">
<title>flag</title>
<path d="M3.754 0c0.477 0 0.941 0.043 1.395 0.129 0.453 0.078 0.898 0.164 1.336 0.258 0.43 0.086 0.859 0.176 1.289 0.27 0.437 0.094 0.891 0.141 1.359 0.141 0.305 0 0.594-0.016 0.867-0.047 0.273-0.039 0.523-0.070 0.75-0.094 0.125-0.016 0.34-0.039 0.644-0.070 0.313-0.039 0.512-0.070 0.605-0.086v7c-0.094 0.016-0.293 0.047-0.605 0.094-0.305 0.047-0.52 0.078-0.644 0.094-0.219 0.023-0.461 0.051-0.727 0.082s-0.547 0.047-0.844 0.047c-0.5 0-0.984-0.039-1.453-0.117-0.469-0.086-0.926-0.176-1.371-0.27-0.437-0.094-0.871-0.203-1.301-0.328-0.422-0.133-0.852-0.199-1.289-0.199-0.617 0-1.035 0.035-1.254 0.105-0.219 0.062-0.395 0.113-0.512 0.167v4.825h-1v-11.449l0.141-0.094c0.031-0.023 0.234-0.105 0.609-0.246 0.383-0.141 1.051-0.211 2.004-0.211zM3.766 0.949c-0.609 0-1.027 0.039-1.254 0.117-0.219 0.078-0.387 0.141-0.504 0.188l-0.008 4.996c0.203-0.062 0.422-0.113 0.641-0.168 0.227-0.055 0.602-0.082 1.125-0.082 0.477 0 0.938 0.062 1.383 0.188 0.453 0.117 0.898 0.223 1.336 0.316 0.43 0.094 0.84 0.184 1.23 0.27s0.82 0.129 1.289 0.129c0.297 0 0.648-0.016 1.055-0.047 0.406-0.039 0.715-0.074 0.941-0.105v-5.145c-0.227 0.023-0.512 0.055-0.871 0.094s-0.687 0.059-0.984 0.059c-0.508 0-0.988-0.051-1.441-0.152-0.453-0.109-0.902-0.211-1.348-0.305-0.437-0.094-0.871-0.176-1.301-0.246-0.422-0.070-0.852-0.105-1.289-0.105z"></path>
</svg>
